X:1
T:A Great Big Sea Hove in Long Beach
M:2/4
L:1/8
K:G
 D| DG GG| FA D2| Dd d3/2 B/2| c/2B/2 A/2G/2 F D/2D/2| dd dB| cc cB|\
 cB AG| FE D D/2D/2| GG A/2A/2 F| G4-| G4-| G2 z||
